X: 17862
T: Horsa's
R: slip jig
M: 9/8
K: Bminor
|:FGA GFE FED|c2d edc dBA|FGA GFE FED|DEE EDF GFE|
FGA GFE FED|c2d edc dBA|f3 efe dcA|1 gfe dcB AGE:|2 gfe dcd efa||
|:b2f afe fed|c2e dcB cBA|aAA gAA edc|d2c Bcd efa|
b2f afe fed|c2e dcB cBA|GAB def gfg|1 a4 gf efa:|2 a4 gf ecA||

